X: 1
T: Further, The Deeper, The
M: 6/8
L: 1/8
R: jig
K: Ador
|:E|ABd edB|dBA A2B|GAB dgd|BGG G2g|
fed efg|aAA e2a|g2e dBd|eAA A2:|
|:d|ege ege|dBA A2B|ded dgd|BGG G2g|
fed efg|aAA e2a|g2e dBd|eAA A2:|
